icons/glyphs/glyph-karbon.svg

<?xml version="1.0" encoding="UTF-8" standalone="no"?><svg height="16" viewBox="0 0 4.2333332 4.2333332" width="16" xmlns="http://www.w3.org/2000/svg"><sodipodi:namedview/><metadata><rdf:RDF><cc:Work><dc:format>image/svg+xml</dc:format><dc:type/><dc:title/></cc:Work></rdf:RDF></metadata><g fill="#d0d0d0"><path d="m2.1166666-.0000001a2.1166667 2.1166667 0 0 0 -1.51949379.6465755.21166667.21166667 0 0 1  .14283373.1843815c.0880234.00573.18242149.015154.28380686.027492.044281.00533.087958.010448.1335319.017363.135423.020714.2731153.048249.4067969.086403.01498.00426.029828.0085.044648.013022.020983.00641.041831.012901.062425.019844.038671.013009.076788.02655.1136881.041548.0002751.0001164.000552.0002963.000824.000412.011486.00468.022206.010006.033486.014883.028224.0122.055916.024938.082682.038447.01499.00756.029557.015373.044028.023358.024206.013368.047273.027562.069867.042168.011478.00741.023499.014384.03452.022118.030216.021245.058539.043974.084956.0678.043662.039319.081847.082157.113068.1289843.00054.000816.00132.00146.00186.00227a.26458334.26458334 0 0 1  .025219-.00124.26458334.26458334 0 0 1  .2645834.2645834.26458334.26458334 0 0 1 -.2548682.26417c-.05041.09485-.1262214.1761532-.2002959.2567314-.00263.00288-.00523.00581-.00785.00868-.0002646.0002857-.00056.00054-.000824.000824-.075875.083272-.14826.166527-.1864486.2641699a.3175.3175 0 0 1  .015295-.000824.3175.3175 0 0 1  .3175.3174999.3175.3175 0 0 1 -.10604.2364714c.031074.018558.064742.035858.1002522.052297.00219.00102.0042.0021.00641.0031.034183.015594.070597.030249.1081072.044028.00491.0018.00972.00361.014676.00537.037686.013476.076557.02602.1167887.037827.00344.001.00687.0021.010336.0031.042465.01226.08617.023761.1306379.034313.1857963.04409.3856626.073767.5719548.093844a.42333334.42333334 0 0 1  .4227055-.4045143.42333334.42333334 0 0 1  .3865399.2517676 2.1166667 2.1166667 0 0 0  .24846-.9926009 2.1166667 2.1166667 0 0 0 -2.1166666-2.1166667zm-1.76774736.9570475c-.004385.00669-.008098.01373-.0124024.020464a2.1166667 2.1166667 0 0 1  .0132292-.019017.21166667.21166667 0 0 1 -.000828-.00145zm-.0124024.020464a2.1166667 2.1166667 0 0 0 -.0276984.045889c.00924-.015304.018056-.030805.0276984-.045889zm-.0276984.045889c-.0242214.040121-.046976.080844-.0684196.1223698a2.1166667 2.1166667 0 0 1  .0684196-.1223698zm-.0684196.1223698a2.1166667 2.1166667 0 0 0 -.0297656.059531c.009566-.020033.0195706-.039788.0297656-.059531zm-.0297656.059531c-.0198206.04151-.0380789.083655-.0551904.1262972a2.1166667 2.1166667 0 0 1  .0551904-.1262972zm-.0551904.1262972a2.1166667 2.1166667 0 0 0 -.0262516.064285c.007927-.021726.0176365-.042817.0262516-.064285zm-.0440284.1130681a2.1166667 2.1166667 0 0 0 -.0347266.1159619c.010703-.038971.0218169-.077686.0347266-.1159619zm-.0533301.188929a2.1166667 2.1166667 0 0 0 -.0227377.1072801c.006567-.035967.0143297-.071758.0227377-.1072801zm-.0370003.2023649a2.1166667 2.1166667 0 0 0 -.0115755.090537c.002799-.030379.007475-.060378.0115755-.090537zm-.0161231.4194059a2.1166667 2.1166667 0 0 0  .001654.021084c-.0005248-.00703-.001197-.01403-.001654-.021084zm.0254248.2168343a2.1166667 2.1166667 0 0 0  .001654.0093c-.0005396-.00311-.001127-.00619-.001654-.0093zm.0349333.15813a2.1166667 2.1166667 0 0 0  .0192236.075034c-.007144-.024707-.0129643-.049963-.0192236-.075034zm.0628385.2062922a2.1166667 2.1166667 0 0 0  .024598.067179c-.008851-.022069-.016476-.04475-.024598-.067179zm.0806152.1924431a2.1166667 2.1166667 0 0 0  .031626.065526c-.0112073-.021463-.021141-.043638-.031626-.065526zm.096945.1794205a2.1166667 2.1166667 0 0 0  .0415478.06842c-.0146352-.022276-.0277417-.045568-.0415478-.06842zm.11844239.1756997a2.1166667 2.1166667 0 0 0  .044235.059324c-.0154651-.019189-.0294347-.039592-.044235-.059324zm.13477212.1624707a2.1166667 2.1166667 0 0 0  .0485759.05333c-.0168578-.01715-.0323062-.035616-.0485759-.05333zm.14820805.146141a2.1166667 2.1166667 0 0 0  .05333.048369c-.0184442-.015412-.0354268-.032349-.05333-.048369zm2.7336833.074414c-.0037.00297-.00724.00615-.010956.0091a2.1166667 2.1166667 0 0 0  .010956-.0091zm-2.54785487.074621a2.1166667 2.1166667 0 0 0  .031006.023151c-.0106564-.00728-.0204908-.015679-.031006-.023151zm2.38848467.040928c-.012639.00834-.025224.016744-.038034.024805a2.1166667 2.1166667 0 0 0  .038034-.024805zm-.1928564.113481c-.010792.00558-.021772.010726-.03266.016123a2.1166667 2.1166667 0 0 0  .03266-.016123zm-.1924431.087644c-.00557.0022-.01095.00487-.016536.00703a2.1166667 2.1166667 0 0 0  .016536-.00703zm-.1907894.064905c-.013416.00388-.026804.00774-.040307.011368a2.1166667 2.1166667 0 0 0  .040307-.011368zm-.219108.05147c-.00994.00176-.019996.00312-.029972.00476a2.1166667 2.1166667 0 0 0  .029972-.00476zm-.2031917.025632c-.00843.00068-.016772.00172-.025218.00228a2.1166667 2.1166667 0 0 0  .025218-.00228z" opacity=".6" stroke-width=".264583"/><path d="m .7408333.8311637c.0861761.0056.18217503.015233.2809131.027078-.10031757-.0121532-.19371337-.0213964-.2809131-.027078zm-.000412.00827a.21166667.21166667 0 0 1  .000412.00723.21166667.21166667 0 0 1 -.21166669.2116695.21166667.21166667 0 0 1 -.18024737-.1012858c-.22606779.3433583-.34817523.746117-.34891928 1.1596192 0 1.1694583.94763167 2.1166667 2.11666664 2.1166667.5246807-.0000792 1.0237324-.1948332 1.4068393-.5357813a.42333334.42333334 0 0 1 -.3299024-.2922819c-.3820236-.074329-.8422707-.1968888-1.135848-.3753776a.3175.3175 0 0 1 -.1527556.0392741.3175.3175 0 0 1 -.3174999-.3175.3175.3175 0 0 1  .1814876-.2864941c.0659281-.2187025.3087828-.3615449.4165121-.5762957a.26458334.26458334 0 0 1 -.1746664-.2484603.26458334.26458334 0 0 1  .1498617-.2379182c-.2309064-.3938263-.9243513-.5216901-1.4202751-.5630664zm.4175455.03638c.1342917.020398.2721609.048374.4047291.08599-.133054-.0378851-.2699714-.065368-.4047298-.0859911zm.4535116.100459c.01955.00598.03908.011949.058291.018397-.019231-.00647-.03872-.01239-.058291-.018397zm.1752864.061185c.00988.00403.019208.00864.028939.012816-.00975-.00419-.019032-.00877-.028939-.012816zm.1153419.053124c.015054.0076.029704.015531.044235.023564-.014554-.00804-.029155-.015955-.044235-.023564zm.1097608.062838c.013251.00849.027037.016502.039688.025425-.012661-.00891-.026423-.016944-.039688-.025425zm.1234032.092191c.043874.039556.0823.082599.1136882.1298113-.031345-.047166-.069738-.090252-.1136882-.1298113zm.149655.6589779c-.050439.094787-.12635.1760194-.2000911.2567285.074006-.080514.1496858-.1619776.2000911-.2567285zm-.0709 1.1344011c.00351.00164.00678.00334.010336.00496-.00355-.00161-.00682-.00333-.010336-.00496zm.1153418.047749c.00606.00224.012052.00443.01819.00661-.00615-.00218-.012122-.00438-.01819-.00661zm.1308447.043201c.00543.0016.010863.00318.01633.00475-.00546-.00156-.010909-.00316-.01633-.00475z" fill-rule="evenodd" opacity=".3" stroke-width=".264583"/><path d="m .52916661.7408332a.10583334.10583334 0 0 0 -.10583332.1058333.10583334.10583334 0 0 0  .10583332.1058334.10583334.10583334 0 0 0  .10583333-.1058334.10583334.10583334 0 0 0 -.10583333-.1058333zm1.74624999.7408333a.15875.15875 0 0 0 -.15875.15875.15875.15875 0 0 0  .15875.1587501.15875.15875 0 0 0  .15875-.1587501.15875.15875 0 0 0 -.15875-.15875zm-.3704167 1.0583334a.21166667.21166667 0 0 0 -.2116666.2116667.21166667.21166667 0 0 0  .2116666.2116666.21166667.21166667 0 0 0  .2116667-.2116666.21166667.21166667 0 0 0 -.2116667-.2116667zm1.6933334.4233333a.3175.3175 0 0 0 -.3175.3175001.3175.3175 0 0 0  .3175.3175.3175.3175 0 0 0  .3174999-.3175.3175.3175 0 0 0 -.3174999-.3175001z" stroke-linecap="round" stroke-linejoin="bevel" stroke-width=".529167"/></g></svg>

<?xml version="1.0" encoding="UTF-8" standalone="no"?>
<!-- Created with Inkscape (http://www.inkscape.org/) -->

<svg
   xmlns:dc="http://purl.org/dc/elements/1.1/"
   xmlns:cc="http://creativecommons.org/ns#"
   xmlns:rdf="http://www.w3.org/1999/02/22-rdf-syntax-ns#"
   xmlns:svg="http://www.w3.org/2000/svg"
   xmlns="http://www.w3.org/2000/svg"
   xmlns:sodipodi="http://sodipodi.sourceforge.net/DTD/sodipodi-0.dtd"
   xmlns:inkscape="http://www.inkscape.org/namespaces/inkscape"
   width="16"
   height="16"
   viewBox="0 0 4.2333332 4.2333332"
   version="1.1"
   id="svg8"
   inkscape:version="0.92+devel (f96dc7e339, 2017-07-28, custom)"
   sodipodi:docname="glyph-karbon.svg">
  <defs
     id="defs2" />
  <sodipodi:namedview
     id="base"
     pagecolor="#002466"
     bordercolor="#ffffff"
     borderopacity="0.38039216"
     inkscape:pageopacity="1"
     inkscape:pageshadow="2"
     inkscape:zoom="36.415999"
     inkscape:cx="10.094581"
     inkscape:cy="7.9162778"
     inkscape:document-units="px"
     inkscape:current-layer="g1520"
     inkscape:document-rotation="0"
     showgrid="false"
     inkscape:showpageshadow="false"
     borderlayer="true"
     inkscape:window-width="1920"
     inkscape:window-height="1051"
     inkscape:window-x="0"
     inkscape:window-y="0"
     inkscape:window-maximized="1"
     units="px" />
  <metadata
     id="metadata5">
    <rdf:RDF>
      <cc:Work
         rdf:about="">
        <dc:format>image/svg+xml</dc:format>
        <dc:type
           rdf:resource="http://purl.org/dc/dcmitype/StillImage" />
        <dc:title></dc:title>
      </cc:Work>
    </rdf:RDF>
  </metadata>
  <g
     id="g1520">
    <path
       inkscape:label="#"
       id="circle35"
       d="M 2.1166666,-1e-7 A 2.1166667,2.1166667 0 0 0 0.59717281,0.6465754 0.21166667,0.21166667 0 0 1 0.74000654,0.8309569 c 0.0880234,0.00573 0.18242149,0.015154 0.28380686,0.027492 0.044281,0.00533 0.087958,0.010448 0.1335319,0.017363 0.135423,0.020714 0.2731153,0.048249 0.4067969,0.086403 0.01498,0.00426 0.029828,0.0085 0.044648,0.013022 0.020983,0.00641 0.041831,0.012901 0.062425,0.019844 0.038671,0.013009 0.076788,0.02655 0.1136881,0.041548 2.751e-4,1.164e-4 5.52e-4,2.963e-4 8.24e-4,4.12e-4 0.011486,0.00468 0.022206,0.010006 0.033486,0.014883 0.028224,0.0122 0.055916,0.024938 0.082682,0.038447 0.01499,0.00756 0.029557,0.015373 0.044028,0.023358 0.024206,0.013368 0.047273,0.027562 0.069867,0.042168 0.011478,0.00741 0.023499,0.014384 0.03452,0.022118 0.030216,0.021245 0.058539,0.043974 0.084956,0.0678 0.043662,0.039319 0.081847,0.082157 0.113068,0.1289843 5.4e-4,8.16e-4 0.00132,0.00146 0.00186,0.00227 a 0.26458334,0.26458334 0 0 1 0.025219,-0.00124 0.26458334,0.26458334 0 0 1 0.2645834,0.2645834 0.26458334,0.26458334 0 0 1 -0.2548682,0.26417 c -0.05041,0.09485 -0.1262214,0.1761532 -0.2002959,0.2567314 -0.00263,0.00288 -0.00523,0.00581 -0.00785,0.00868 -2.646e-4,2.857e-4 -5.6e-4,5.4e-4 -8.24e-4,8.24e-4 C 2.0002836,2.25409 1.9278986,2.337345 1.88971,2.4349879 a 0.3175,0.3175 0 0 1 0.015295,-8.24e-4 0.3175,0.3175 0 0 1 0.3175,0.3174999 0.3175,0.3175 0 0 1 -0.10604,0.2364714 c 0.031074,0.018558 0.064742,0.035858 0.1002522,0.052297 0.00219,0.00102 0.0042,0.0021 0.00641,0.0031 0.034183,0.015594 0.070597,0.030249 0.1081072,0.044028 0.00491,0.0018 0.00972,0.00361 0.014676,0.00537 0.037686,0.013476 0.076557,0.02602 0.1167887,0.037827 0.00344,10e-4 0.00687,0.0021 0.010336,0.0031 0.042465,0.01226 0.08617,0.023761 0.1306379,0.034313 0.1857963,0.04409 0.3856626,0.073767 0.5719548,0.093844 A 0.42333334,0.42333334 0 0 1 3.5983333,2.8574999 0.42333334,0.42333334 0 0 1 3.9848732,3.1092675 2.1166667,2.1166667 0 0 0 4.2333332,2.1166666 2.1166667,2.1166667 0 0 0 2.1166666,-1e-7 Z M 0.34891924,0.9570474 c -0.004385,0.00669 -0.008098,0.01373 -0.0124024,0.020464 a 2.1166667,2.1166667 0 0 1 0.0132292,-0.019017 0.21166667,0.21166667 0 0 1 -8.28e-4,-0.00145 z m -0.0124024,0.020464 a 2.1166667,2.1166667 0 0 0 -0.0276984,0.045889 c 0.00924,-0.015304 0.018056,-0.030805 0.0276984,-0.045889 z m -0.0276984,0.045889 c -0.0242214,0.040121 -0.046976,0.080844 -0.0684196,0.1223698 a 2.1166667,2.1166667 0 0 1 0.0684196,-0.1223698 z m -0.0684196,0.1223698 a 2.1166667,2.1166667 0 0 0 -0.0297656,0.059531 c 0.009566,-0.020033 0.0195706,-0.039788 0.0297656,-0.059531 z m -0.0297656,0.059531 c -0.0198206,0.04151 -0.0380789,0.083655 -0.0551904,0.1262972 a 2.1166667,2.1166667 0 0 1 0.0551904,-0.1262972 z m -0.0551904,0.1262972 a 2.1166667,2.1166667 0 0 0 -0.0262516,0.064285 c 0.007927,-0.021726 0.0176365,-0.042817 0.0262516,-0.064285 z m -0.0440284,0.1130681 a 2.1166667,2.1166667 0 0 0 -0.0347266,0.1159619 c 0.010703,-0.038971 0.0218169,-0.077686 0.0347266,-0.1159619 z m -0.0533301,0.188929 a 2.1166667,2.1166667 0 0 0 -0.0227377,0.1072801 c 0.006567,-0.035967 0.0143297,-0.071758 0.0227377,-0.1072801 z m -0.0370003,0.2023649 a 2.1166667,2.1166667 0 0 0 -0.0115755,0.090537 c 0.002799,-0.030379 0.007475,-0.060378 0.0115755,-0.090537 z m -0.0161231,0.4194059 a 2.1166667,2.1166667 0 0 0 0.001654,0.021084 c -5.248e-4,-0.00703 -0.001197,-0.01403 -0.001654,-0.021084 z m 0.0254248,0.2168343 a 2.1166667,2.1166667 0 0 0 0.001654,0.0093 c -5.396e-4,-0.00311 -0.001127,-0.00619 -0.001654,-0.0093 z m 0.0349333,0.15813 a 2.1166667,2.1166667 0 0 0 0.0192236,0.075034 c -0.007144,-0.024707 -0.0129643,-0.049963 -0.0192236,-0.075034 z m 0.0628385,0.2062922 a 2.1166667,2.1166667 0 0 0 0.024598,0.067179 c -0.008851,-0.022069 -0.016476,-0.04475 -0.024598,-0.067179 z m 0.0806152,0.1924431 a 2.1166667,2.1166667 0 0 0 0.031626,0.065526 c -0.0112073,-0.021463 -0.021141,-0.043638 -0.031626,-0.065526 z m 0.096945,0.1794205 a 2.1166667,2.1166667 0 0 0 0.0415478,0.06842 c -0.0146352,-0.022276 -0.0277417,-0.045568 -0.0415478,-0.06842 z m 0.11844239,0.1756997 a 2.1166667,2.1166667 0 0 0 0.044235,0.059324 c -0.0154651,-0.019189 -0.0294347,-0.039592 -0.044235,-0.059324 z m 0.13477212,0.1624707 a 2.1166667,2.1166667 0 0 0 0.0485759,0.05333 c -0.0168578,-0.01715 -0.0323062,-0.035616 -0.0485759,-0.05333 z m 0.14820805,0.146141 a 2.1166667,2.1166667 0 0 0 0.05333,0.048369 C 0.7420261,3.7257548 0.7250435,3.7088178 0.7071403,3.6927978 Z m 2.7336833,0.074414 c -0.0037,0.00297 -0.00724,0.00615 -0.010956,0.0091 a 2.1166667,2.1166667 0 0 0 0.010956,-0.0091 z m -2.54785487,0.074621 a 2.1166667,2.1166667 0 0 0 0.031006,0.023151 c -0.0106564,-0.00728 -0.0204908,-0.015679 -0.031006,-0.023151 z m 2.38848467,0.040928 c -0.012639,0.00834 -0.025224,0.016744 -0.038034,0.024805 a 2.1166667,2.1166667 0 0 0 0.038034,-0.024805 z M 3.088597,3.9962418 c -0.010792,0.00558 -0.021772,0.010726 -0.03266,0.016123 a 2.1166667,2.1166667 0 0 0 0.03266,-0.016123 z m -0.1924431,0.087644 c -0.00557,0.0022 -0.01095,0.00487 -0.016536,0.00703 a 2.1166667,2.1166667 0 0 0 0.016536,-0.00703 z m -0.1907894,0.064905 c -0.013416,0.00388 -0.026804,0.00774 -0.040307,0.011368 a 2.1166667,2.1166667 0 0 0 0.040307,-0.011368 z m -0.219108,0.05147 c -0.00994,0.00176 -0.019996,0.00312 -0.029972,0.00476 a 2.1166667,2.1166667 0 0 0 0.029972,-0.00476 z m -0.2031917,0.025632 c -0.00843,6.8e-4 -0.016772,0.00172 -0.025218,0.00228 a 2.1166667,2.1166667 0 0 0 0.025218,-0.00228 z"
       style="opacity:0.6;fill:#d0d0d0;stroke-width:0.26458332"
       inkscape:connector-curvature="0" />
    <path
       inkscape:label="#"
       id="path39"
       d="m 0.7408333,0.8311637 c 0.0861761,0.0056 0.18217503,0.015233 0.2809131,0.027078 C 0.92142883,0.8460885 0.82803303,0.8368453 0.7408333,0.8311637 Z m -4.12e-4,0.00827 a 0.21166667,0.21166667 0 0 1 4.12e-4,0.00723 A 0.21166667,0.21166667 0 0 1 0.52916661,1.0583332 0.21166667,0.21166667 0 0 1 0.34891924,0.9570474 C 0.12285145,1.3004057 7.44005e-4,1.7031644 -3.5000001e-8,2.1166666 -3.5000001e-8,3.2861249 0.94763163,4.2333333 2.1166666,4.2333333 2.6413473,4.2332541 3.140399,4.0385001 3.5235059,3.697552 A 0.42333334,0.42333334 0 0 1 3.1936035,3.4052701 C 2.8115799,3.3309411 2.3513328,3.2083813 2.0577555,3.0298925 A 0.3175,0.3175 0 0 1 1.9049999,3.0691666 0.3175,0.3175 0 0 1 1.5875,2.7516666 0.3175,0.3175 0 0 1 1.7689876,2.4651725 C 1.8349157,2.24647 2.0777704,2.1036276 2.1854997,1.8888768 A 0.26458334,0.26458334 0 0 1 2.0108333,1.6404165 0.26458334,0.26458334 0 0 1 2.160695,1.4024983 C 1.9297886,1.008672 1.2363437,0.8808082 0.7404199,0.8394319 Z m 0.4175455,0.03638 c 0.1342917,0.020398 0.2721609,0.048374 0.4047291,0.08599 C 1.4296419,0.9239186 1.2927245,0.8964357 1.1579661,0.8758126 Z m 0.4535116,0.100459 c 0.01955,0.00598 0.03908,0.011949 0.058291,0.018397 -0.019231,-0.00647 -0.03872,-0.01239 -0.058291,-0.018397 z m 0.1752864,0.061185 c 0.00988,0.00403 0.019208,0.00864 0.028939,0.012816 -0.00975,-0.00419 -0.019032,-0.00877 -0.028939,-0.012816 z m 0.1153419,0.053124 c 0.015054,0.0076 0.029704,0.015531 0.044235,0.023564 -0.014554,-0.00804 -0.029155,-0.015955 -0.044235,-0.023564 z m 0.1097608,0.062838 c 0.013251,0.00849 0.027037,0.016502 0.039688,0.025425 -0.012661,-0.00891 -0.026423,-0.016944 -0.039688,-0.025425 z m 0.1234032,0.092191 c 0.043874,0.039556 0.0823,0.082599 0.1136882,0.1298113 C 2.2176139,1.328256 2.1792209,1.28517 2.1352707,1.2456107 Z m 0.149655,0.6589779 C 2.2344867,1.9993756 2.1585757,2.080608 2.0848346,2.1613171 2.1588406,2.0808031 2.2345204,1.9993395 2.2849257,1.9045886 Z m -0.0709,1.1344011 c 0.00351,0.00164 0.00678,0.00334 0.010336,0.00496 -0.00355,-0.00161 -0.00682,-0.00333 -0.010336,-0.00496 z m 0.1153418,0.047749 c 0.00606,0.00224 0.012052,0.00443 0.01819,0.00661 -0.00615,-0.00218 -0.012122,-0.00438 -0.01819,-0.00661 z m 0.1308447,0.043201 c 0.00543,0.0016 0.010863,0.00318 0.01633,0.00475 -0.00546,-0.00156 -0.010909,-0.00316 -0.01633,-0.00475 z"
       style="opacity:0.3;fill:#d0d0d0;fill-rule:evenodd;stroke-width:0.26458332"
       inkscape:connector-curvature="0" />
    <path
       inkscape:label="#"
       id="circle51"
       d="M 0.52916661,0.7408332 A 0.10583334,0.10583334 0 0 0 0.42333329,0.8466665 0.10583334,0.10583334 0 0 0 0.52916661,0.9524999 0.10583334,0.10583334 0 0 0 0.63499994,0.8466665 0.10583334,0.10583334 0 0 0 0.52916661,0.7408332 Z M 2.2754166,1.4816665 a 0.15875,0.15875 0 0 0 -0.15875,0.15875 0.15875,0.15875 0 0 0 0.15875,0.1587501 0.15875,0.15875 0 0 0 0.15875,-0.1587501 0.15875,0.15875 0 0 0 -0.15875,-0.15875 z M 1.9049999,2.5399999 A 0.21166667,0.21166667 0 0 0 1.6933333,2.7516666 0.21166667,0.21166667 0 0 0 1.9049999,2.9633332 0.21166667,0.21166667 0 0 0 2.1166666,2.7516666 0.21166667,0.21166667 0 0 0 1.9049999,2.5399999 Z m 1.6933334,0.4233333 a 0.3175,0.3175 0 0 0 -0.3175,0.3175001 0.3175,0.3175 0 0 0 0.3175,0.3175 0.3175,0.3175 0 0 0 0.3174999,-0.3175 0.3175,0.3175 0 0 0 -0.3174999,-0.3175001 z"
       style="fill:#d0d0d0;stroke-width:0.52916664;stroke-linecap:round;stroke-linejoin:bevel"
       inkscape:connector-curvature="0" />
  </g>
</svg>
